X:1
T:The LORD's My Shepherd
T:Text: Psalm 23; vers. Scottish Psalter, 1650 Tune: J. L. Macbeth Bain, c. 1840-1925 Harmonization under copyright; for copyrighted material see Psalter Hymnal 161
T:86 86 86 BROTHER JAMES' AIR www.hymnary.org/text/the_lords_my_shepherd_ill_not_want_he_m
T:The LORD's My Shepherd
T:This hymn is in the public domain. You may freely use this score for personal and congregational worship. If you reproduce the score, please credit Hymnary.org as the source. 
T:This hymn is in the public domain. You may freely use this score for personal and congregational worship. If you reproduce the score, please credit Hymnary.org as the source. 
Z:This hymn is in the public domain. You may freely use this score for personal and congregational worship. If you reproduce the score, please credit Hymnary.org as the source.
L:1/8
M:3/2
K:D
V:1 treble nm="SOPRANO ALTO" snm="S. A."
V:1
"^1""^2""^3""^4""^5" D4 | F2 A2 d4 A4 | B2 d2 A4 G4 | F2 D2 D4 C4 | D8 D4 | F2 A2 d4 A4 | %6
w: The|LORD's my shep- herd;|I'll not want. He|makes me down to|lie in|pas- tures green; he|
w: My|soul he doth re-|store a- gain, and|me to walk doth|make with-|in the paths of|
w: Yea,|though I walk in|death's dark vale, yet|will I fear no|ill; for|thou art with me,|
w: My|ta- ble thou hast|fur- nish- ed in|pres- ence of my|foes; my|head thou dost with|
w: Good-|ness and mer- cy|all my life shall|sure- ly fol- low|me, and|in God's house for-|
 B2 d2 A4 G4 | F2 D2 D4 C4 | D8 E4 |1 F2 D2 D4 E4 | F2 D2 D4 E4 | F2 A2 d4 d4 | d8 x4 |] %13
w: lead- eth me the|qui- et wa- ters|by; he|lead- eth me, he|lead- eth me the|qui- et wa- ters|by.|
w: right- eous- ness, e'en|for his own name's|sake; with-|in the paths of|right- eous- ness, e'en|for his own name's|sake.|
w: and thy rod and|staff me com- fort|still; for|thou art with me,|and thy rod and|staff me com- fort|still.|
w: oil a- noint, and|my cup o- ver-|flows; my|head thou dost with|oil a- noint, and|my cup o- ver-|flows.|
w: ev- er- more my|dwell- ing place shall|be; and|in God's house for-|ev- er more my|dwell- ing place shall|be.|

